X:149
T: Maque dashi
N: C1645
O: China,Hebei, Jiaohe
S: IV, 88]
R: Wuge, Bawangbian]
M: 2/4
L: 1/16
K: D
d2d2edB2 | A2dBBAF2 | A3BA2D2 | E3FA4 |
B,2D4E2 | F3EF4 | A2dBA2F2 | E3FA4 |
F3AB2B2 | d2A2B4 | d2B2z4 |
d2A2BAFE | A8 | d2A2BAFE | A8 |
F3AB2B2 | F3AB2B2 |
F3AF2A2 | F2A2B2B2 |
d2d2edB2 | A2dBA2F2 | A3BA2D2 | E3FA4 |
B,2D4E2 | F3EF4 | A2B2A2F2 | E3FA4

@@@ Tune index: 6704
